icons/ellipsis-double-h.svg

<svg width="24" height="24" viewBox="0 0 24 24" fill="none" xmlns="http://www.w3.org/2000/svg">
<path fill-rule="evenodd" clip-rule="evenodd" d="M3.75 8.5C3.75 7.80964 4.30964 7.25 5 7.25C5.69036 7.25 6.25 7.80964 6.25 8.5C6.25 9.19036 5.69036 9.75 5 9.75C4.30964 9.75 3.75 9.19036 3.75 8.5ZM5 5.75C3.48122 5.75 2.25 6.98122 2.25 8.5C2.25 10.0188 3.48122 11.25 5 11.25C6.51878 11.25 7.75 10.0188 7.75 8.5C7.75 6.98122 6.51878 5.75 5 5.75ZM10.75 8.5C10.75 7.80964 11.3096 7.25 12 7.25C12.6904 7.25 13.25 7.80964 13.25 8.5C13.25 9.19036 12.6904 9.75 12 9.75C11.3096 9.75 10.75 9.19036 10.75 8.5ZM12 5.75C10.4812 5.75 9.25 6.98122 9.25 8.5C9.25 10.0188 10.4812 11.25 12 11.25C13.5188 11.25 14.75 10.0188 14.75 8.5C14.75 6.98122 13.5188 5.75 12 5.75ZM19 7.25C18.3096 7.25 17.75 7.80964 17.75 8.5C17.75 9.19036 18.3096 9.75 19 9.75C19.6904 9.75 20.25 9.19036 20.25 8.5C20.25 7.80964 19.6904 7.25 19 7.25ZM16.25 8.5C16.25 6.98122 17.4812 5.75 19 5.75C20.5188 5.75 21.75 6.98122 21.75 8.5C21.75 10.0188 20.5188 11.25 19 11.25C17.4812 11.25 16.25 10.0188 16.25 8.5ZM3.75 15.5C3.75 14.8096 4.30964 14.25 5 14.25C5.69036 14.25 6.25 14.8096 6.25 15.5C6.25 16.1904 5.69036 16.75 5 16.75C4.30964 16.75 3.75 16.1904 3.75 15.5ZM5 12.75C3.48122 12.75 2.25 13.9812 2.25 15.5C2.25 17.0188 3.48122 18.25 5 18.25C6.51878 18.25 7.75 17.0188 7.75 15.5C7.75 13.9812 6.51878 12.75 5 12.75ZM12 14.25C11.3096 14.25 10.75 14.8096 10.75 15.5C10.75 16.1904 11.3096 16.75 12 16.75C12.6904 16.75 13.25 16.1904 13.25 15.5C13.25 14.8096 12.6904 14.25 12 14.25ZM9.25 15.5C9.25 13.9812 10.4812 12.75 12 12.75C13.5188 12.75 14.75 13.9812 14.75 15.5C14.75 17.0188 13.5188 18.25 12 18.25C10.4812 18.25 9.25 17.0188 9.25 15.5ZM17.75 15.5C17.75 14.8096 18.3096 14.25 19 14.25C19.6904 14.25 20.25 14.8096 20.25 15.5C20.25 16.1904 19.6904 16.75 19 16.75C18.3096 16.75 17.75 16.1904 17.75 15.5ZM19 12.75C17.4812 12.75 16.25 13.9812 16.25 15.5C16.25 17.0188 17.4812 18.25 19 18.25C20.5188 18.25 21.75 17.0188 21.75 15.5C21.75 13.9812 20.5188 12.75 19 12.75Z" fill="black"/>
</svg>

<svg xmlns="http://www.w3.org/2000/svg" viewBox="0 0 24 24" fill="currentColor">
  <path d="M3.75 8.5c0-.69036.55964-1.25 1.25-1.25s1.25.55964 1.25 1.25S5.69036 9.75 5 9.75 3.75 9.19036 3.75 8.5ZM5 5.75c-1.51878 0-2.75 1.23122-2.75 2.75 0 1.5188 1.23122 2.75 2.75 2.75s2.75-1.2312 2.75-2.75c0-1.51878-1.23122-2.75-2.75-2.75Zm5.75 2.75c0-.69036.5596-1.25 1.25-1.25s1.25.55964 1.25 1.25-.5596 1.25-1.25 1.25-1.25-.55964-1.25-1.25ZM12 5.75c-1.5188 0-2.75 1.23122-2.75 2.75 0 1.5188 1.2312 2.75 2.75 2.75s2.75-1.2312 2.75-2.75c0-1.51878-1.2312-2.75-2.75-2.75Zm7 1.5c-.6904 0-1.25.55964-1.25 1.25s.5596 1.25 1.25 1.25 1.25-.55964 1.25-1.25-.5596-1.25-1.25-1.25ZM16.25 8.5c0-1.51878 1.2312-2.75 2.75-2.75s2.75 1.23122 2.75 2.75c0 1.5188-1.2312 2.75-2.75 2.75s-2.75-1.2312-2.75-2.75Zm-12.5 7c0-.6904.55964-1.25 1.25-1.25s1.25.5596 1.25 1.25-.55964 1.25-1.25 1.25-1.25-.5596-1.25-1.25ZM5 12.75c-1.51878 0-2.75 1.2312-2.75 2.75S3.48122 18.25 5 18.25s2.75-1.2312 2.75-2.75S6.51878 12.75 5 12.75Zm7 1.5c-.6904 0-1.25.5596-1.25 1.25s.5596 1.25 1.25 1.25 1.25-.5596 1.25-1.25-.5596-1.25-1.25-1.25ZM9.25 15.5c0-1.5188 1.2312-2.75 2.75-2.75s2.75 1.2312 2.75 2.75-1.2312 2.75-2.75 2.75-2.75-1.2312-2.75-2.75Zm8.5 0c0-.6904.5596-1.25 1.25-1.25s1.25.5596 1.25 1.25-.5596 1.25-1.25 1.25-1.25-.5596-1.25-1.25ZM19 12.75c-1.5188 0-2.75 1.2312-2.75 2.75s1.2312 2.75 2.75 2.75 2.75-1.2312 2.75-2.75-1.2312-2.75-2.75-2.75Z"/>
</svg>
